src/rounded/icons/fi-rr-spa.svg

<svg id="Layer_1" height="512" viewBox="0 0 24 24" width="512" xmlns="http://www.w3.org/2000/svg" data-name="Layer 1"><path d="m19.367 14.727a4.149 4.149 0 0 0 2.633-3.727c0-2.622-2.5-4.354-6.8-4.849a3.267 3.267 0 0 0 .8-2.151c0-2.43-2.355-4-6-4s-6 1.57-6 4a3.464 3.464 0 0 0 1.9 3.051c-2.276 1.001-2.9 2.555-2.9 3.949a4 4 0 0 0 2.229 3.614c-3.436.766-5.229 2.243-5.229 4.386 0 3.271 4.149 5 12 5 7.963 0 12-1.682 12-5 0-2.057-1.555-3.484-4.633-4.273zm-9.367-12.727c1.991 0 4 .619 4 2s-2.009 2-4 2-4-.619-4-2 2.009-2 4-2zm2.5 6c3.46 0 7.5.786 7.5 3s-4.04 3-7.5 3c-2.255 0-7.5-.292-7.5-3s5.245-3 7.5-3zm-.5 14c-6.075 0-10-1.178-10-3s3.925-3 10-3c6.262 0 10 1.122 10 3s-3.738 3-10 3z"/></svg>

<svg id="Layer_1" data-name="Layer 1" xmlns="http://www.w3.org/2000/svg" viewBox="0 0 24 24"><path d="M19.367,14.727A4.149,4.149,0,0,0,22,11c0-2.622-2.5-4.354-6.8-4.849A3.267,3.267,0,0,0,16,4c0-2.43-2.355-4-6-4S4,1.57,4,4A3.464,3.464,0,0,0,5.9,7.051C3.624,8.052,3,9.606,3,11a4,4,0,0,0,2.229,3.614C1.793,15.38,0,16.857,0,19c0,3.271,4.149,5,12,5,7.963,0,12-1.682,12-5C24,16.943,22.445,15.516,19.367,14.727ZM10,2c1.991,0,4,.619,4,2s-2.009,2-4,2S6,5.381,6,4,8.009,2,10,2Zm2.5,6c3.46,0,7.5.786,7.5,3s-4.04,3-7.5,3C10.245,14,5,13.708,5,11S10.245,8,12.5,8ZM12,22C5.925,22,2,20.822,2,19s3.925-3,10-3c6.262,0,10,1.122,10,3S18.262,22,12,22Z"/></svg>
